packages/kaspersky-hexa-ui-icons/src/iconsSVGs/64x42/FlagHk.svg

<svg xmlns="http://www.w3.org/2000/svg" width="64" height="42" fill="none" viewBox="0 0 64 42"><g clip-path="url(#a)"><rect width="64" height="42" fill="#fff" rx="5"/><path fill="#f0371d" fill-rule="evenodd" d="M0 42h64V0H0z" clip-rule="evenodd"/><path fill="#fff" fill-rule="evenodd" d="M33.2308 8.6844c1.4707.4779 1.8882 3.2498.9324 6.1912-.9557 2.9414-2.9227 4.9385-4.3934 4.4606s-1.8882-3.2497-.9325-6.1911 2.9228-4.9385 4.3935-4.4607m-13.0702 7.7077c.909-1.2511 3.6742-.7916 6.1763 1.0263s3.7937 4.3058 2.8847 5.5569c-.9089 1.251-3.6742.7915-6.1763-1.0264s-3.7936-4.3057-2.8847-5.5568M39 21.5329c3.0928 0 5.6-1.2536 5.6-2.8s-2.5072-2.8-5.6-2.8-5.6 1.2536-5.6 2.8 2.5072 2.8 5.6 2.8m.6999-1.9331a.7.7 0 1 0 0-1.4.7.7 0 0 0 0 1.4M38.5564 32.651c-1.4707.4779-3.4377-1.5192-4.3934-4.4606-.9558-2.9415-.5383-5.7133.9324-6.1912s3.4378 1.5192 4.3935 4.4607c.9557 2.9414.5382 5.7133-.9325 6.1911m-2.3385-4.3923a.7.7 0 1 0 1.3316-.4328.7.7 0 0 0-1.3316.4328m-12.7657 2.9455c-.9089-1.251.3826-3.7389 2.8847-5.5568 2.5022-1.8179 5.2674-2.2774 6.1763-1.0264s-.3825 3.739-2.8847 5.5569c-2.5021 1.8179-5.2673 2.2774-6.1763 1.0263m3.4547-3.5815a.7.7 0 1 0 .8229 1.1326.7.7 0 1 0-.8229-1.1326m-2.2726-9.0518a.7.7 0 0 0-.9777.1549.7.7 0 1 0 .9777-.1549m7.9068-4.9584a.7.7 0 1 0-1.3316-.4326.7.7 0 0 0 1.3316.4326" clip-rule="evenodd"/></g><defs><clipPath id="a"><rect width="64" height="42" fill="#fff" rx="5"/></clipPath></defs></svg>

<svg width="64" height="42" viewBox="0 0 64 42" fill="none" xmlns="http://www.w3.org/2000/svg">
<g clip-path="url(#clip0_37941_2258)">
<rect width="64" height="42" rx="5" fill="white"/>
<path fill-rule="evenodd" clip-rule="evenodd" d="M0 42H64V0H0V42Z" fill="#F0371D"/>
<path fill-rule="evenodd" clip-rule="evenodd" d="M33.2308 8.68441C34.7015 9.16227 35.119 11.9342 34.1632 14.8756C33.2075 17.817 31.2405 19.8141 29.7698 19.3362C28.2991 18.8584 27.8816 16.0865 28.8373 13.1451C29.7931 10.2037 31.7601 8.20655 33.2308 8.68441ZM20.1606 16.3921C21.0696 15.141 23.8348 15.6005 26.3369 17.4184C28.839 19.2363 30.1306 21.7242 29.2216 22.9753C28.3127 24.2263 25.5474 23.7668 23.0453 21.9489C20.5432 20.131 19.2517 17.6432 20.1606 16.3921ZM39 21.5329C42.0928 21.5329 44.6 20.2793 44.6 18.7329C44.6 17.1865 42.0928 15.9329 39 15.9329C35.9072 15.9329 33.4 17.1865 33.4 18.7329C33.4 20.2793 35.9072 21.5329 39 21.5329ZM39.6999 19.5998C40.0865 19.5998 40.3999 19.2864 40.3999 18.8998C40.3999 18.5132 40.0865 18.1998 39.6999 18.1998C39.3133 18.1998 38.9999 18.5132 38.9999 18.8998C38.9999 19.2864 39.3133 19.5998 39.6999 19.5998ZM38.5564 32.651C37.0857 33.1289 35.1187 31.1318 34.163 28.1904C33.2072 25.2489 33.6247 22.4771 35.0954 21.9992C36.5661 21.5213 38.5332 23.5184 39.4889 26.4599C40.4446 29.4013 40.0271 32.1732 38.5564 32.651ZM36.2179 28.2587C36.3374 28.6263 36.7323 28.8276 37.1 28.7081C37.4677 28.5886 37.6689 28.1937 37.5494 27.826C37.43 27.4584 37.035 27.2571 36.6674 27.3766C36.2997 27.4961 36.0985 27.891 36.2179 28.2587ZM23.4522 31.2042C22.5433 29.9532 23.8348 27.4653 26.3369 25.6474C28.8391 23.8295 31.6043 23.37 32.5132 24.621C33.4222 25.8721 32.1307 28.36 29.6285 30.1779C27.1264 31.9958 24.3612 32.4553 23.4522 31.2042ZM26.9069 27.6227C26.5941 27.8499 26.5248 28.2877 26.752 28.6004C26.9793 28.9132 27.417 28.9825 27.7298 28.7553C28.0426 28.5281 28.1119 28.0903 27.8847 27.7775C27.6574 27.4648 27.2197 27.3954 26.9069 27.6227ZM24.6343 18.5709C24.3216 18.3437 23.8838 18.413 23.6566 18.7258C23.4293 19.0385 23.4987 19.4763 23.8114 19.7035C24.1242 19.9308 24.5619 19.8614 24.7892 19.5487C25.0164 19.2359 24.9471 18.7981 24.6343 18.5709ZM32.5411 13.6125C32.6606 13.2448 32.4593 12.8499 32.0917 12.7304C31.724 12.611 31.3291 12.8122 31.2096 13.1799C31.0901 13.5475 31.2914 13.9424 31.659 14.0619C32.0267 14.1814 32.4216 13.9802 32.5411 13.6125Z" fill="white"/>
</g>
<defs>
<clipPath id="clip0_37941_2258">
<rect width="64" height="42" rx="5" fill="white"/>
</clipPath>
</defs>
</svg>
